; generated by PrusaSlicer 2.5.0+win64 on 2022-12-09 at 04:18:13 UTC

; 

; external perimeters extrusion width = 0.42mm
; perimeters extrusion width = 0.44mm
; infill extrusion width = 0.44mm
; solid infill extrusion width = 0.44mm
; top infill extrusion width = 0.40mm
; first layer extrusion width = 0.42mm

M107
;TYPE:Custom
G90 ; use absolute coordinates
M83 ; extruder relative mode
M140 S80 ; set final bed temp
M104 S150 ; set temporary nozzle temp to prevent oozing during homing
G4 S10 ; allow partial nozzle warmup
G28 ; home all axis
G1 Z50 F240
G1 X2 Y10 F3000
M104 S225 ; set final nozzle temp
M190 S80 ; wait for bed temp to stabilize
M109 S225 ; wait for nozzle temp to stabilize
G1 Z0.28 F240
G92 E0
G1 Y140 E10 F1500 ; prime the nozzle
G1 X2.3 F5000
G92 E0
G1 Y10 E10 F1200 ; prime the nozzle
G92 E0
G21 ; set units to millimeters
G90 ; use absolute coordinates
M83 ; use relative distances for extrusion
; Filament gcode
M107
;LAYER_CHANGE
;Z:0.2
;HEIGHT:0.2
;BEFORE_LAYER_CHANGE
G92 E0
;0.2


G1 E-5 F3600
G1 Z.2 F9000
;AFTER_LAYER_CHANGE
;0.2
G1 X65.162 Y81.936
G1 E5 F2400
M204 S500
;TYPE:Skirt/Brim
;WIDTH:0.42
G1 F1200
G1 X66.264 Y81.164 E.0422
G1 X78.155 Y73.579 E.4422
G1 X79.575 Y72.843 E.05016
G1 X81.049 Y72.255 E.04977
G1 X82.924 Y71.748 E.06088
G1 X84.492 Y71.517 E.04969
G1 X85.903 Y71.447 E.04431
G1 X134.91 Y71.463 E1.53659
G1 X137.06 Y71.571 E.06748
G1 X138.667 Y71.797 E.05088
G1 X140.521 Y72.23 E.05972
G1 X142.633 Y72.984 E.0703
G1 X143.979 Y73.634 E.04686
G1 X145.555 Y74.602 E.05799
G1 X156.373 Y82.114 E.41294
G1 X157.257 Y82.809 E.03525
G1 X158.2 Y83.698 E.04063
G1 X159.576 Y85.419 E.06911
G1 X160.22 Y86.515 E.03984
G1 X160.869 Y88 E.05082
G1 X161.233 Y89.191 E.03904
G1 X165.461 Y108.69 E.62559
G1 X165.455 Y110.15 E.04577
G1 X161.371 Y128.228 E.58113
G1 X160.949 Y129.654 E.04661
G1 X160.224 Y131.297 E.0563
G1 X159.273 Y132.823 E.05638
G1 X158.146 Y134.173 E.05515
G1 X156.897 Y135.333 E.05343
G1 X155.342 Y136.464 E.06029
G1 X142.603 Y144.147 E.46643
G1 X141.142 Y144.861 E.05099
G1 X138.809 Y145.69 E.07764
G1 X137.318 Y146.04 E.04802
G1 X135.791 Y146.253 E.04834
G1 X110.369 Y148.539 E.80029
G1 X109.77 Y148.539 E.0188
G1 X83.922 Y146.257 E.81358
G1 X82.361 Y146.028 E.04947
G1 X80.714 Y145.618 E.05323
G1 X78.792 Y144.892 E.0644
G1 X77.288 Y144.112 E.05314
G1 X76.077 Y143.328 E.04523
G1 X65.771 Y136.275 E.39156
G1 X64.104 Y134.894 E.06788
G1 X63.204 Y133.953 E.04083
G1 X61.508 Y131.771 E.08665
G1 X60.653 Y130.238 E.05505
G1 X59.876 Y128.194 E.06856
G1 X54.596 Y110.005 E.59385
G1 X54.595 Y108.126 E.05889
G1 X60.44 Y88.087 E.65449
G1 X61.201 Y86.454 E.05649
G1 X61.966 Y85.221 E.0455
G1 X62.836 Y84.104 E.04438
G1 X64.06 Y82.851 E.05492
G1 X65.116 Y81.975 E.04304
G1 E-3.5 F3600
;WIPE_START
G1 F7200
G1 X66.264 Y81.164 E-.66776
G1 X67.608 Y80.306 E-.75724
;WIPE_END
G1 E-.075 F3600
G1 X75.294 Y82.036 F9000
G1 E5 F2400
;TYPE:Perimeter
;WIDTH:0.419999
G1 F1200
G1 X75.401 Y81.95 E.00433
G1 X76.42 Y80.735 E.0497
G1 X77.413 Y79.702 E.04494
G1 X78.422 Y78.796 E.04251
G1 X79.445 Y78.016 E.04033
G1 X80.483 Y77.362 E.03847
G1 X81.534 Y76.83 E.03693
G1 X82.599 Y76.418 E.03581
G1 X83.68 Y76.125 E.03513
G1 X84.779 Y75.949 E.03489
G1 X85.954 Y75.89 E.03689
G1 X86.793 Y75.928 E.02632
G1 X87.372 Y75.993 E.01827
G1 X88.271 Y76.159 E.02867
G1 X88.849 Y76.307 E.01869
G1 X90.213 Y76.754 E.04502
G1 X94.993 Y78.389 E.15839
G1 X96.997 Y78.991 E.06561
G1 X97.98 Y79.242 E.0318
G1 X98.953 Y79.452 E.03122
G1 X99.915 Y79.613 E.03058
G1 X100.863 Y79.716 E.02991
G1 X101.781 Y79.75 E.0288
G1 X102.422 Y79.729 E.02011
G1 X103.11 Y79.653 E.02172
G1 X103.635 Y79.559 E.01671
G1 X104.211 Y79.405 E.0187
G1 X104.764 Y79.204 E.01845
G1 X105.296 Y78.956 E.01839
G1 X105.812 Y78.656 E.01874
G1 X106.289 Y78.322 E.01825
G1 X106.754 Y77.941 E.01884
G1 X107.466 Y77.276 E.03056
G1 X108.103 Y76.804 E.02485
G1 X108.769 Y76.455 E.0236
G1 X109.469 Y76.219 E.02315
G1 X110.058 Y76.122 E.01872
G1 X110.678 Y76.105 E.01942
G1 X111.219 Y76.134 E.01699
G1 X111.726 Y76.25 E.01632
G1 X112.488 Y76.504 E.02519
G1 X113.048 Y76.803 E.01992
G1 X113.49 Y77.105 E.01676
G1 X114.269 Y77.71 E.03093
G1 X114.769 Y78.059 E.01914
G1 X115.276 Y78.368 E.0186
G1 X115.824 Y78.648 E.0193
G1 X116.884 Y79.046 E.03551
G1 X117.946 Y79.27 E.034
G1 X118.508 Y79.324 E.01772
G1 X119.093 Y79.341 E.01835
G1 X120.046 Y79.287 E.02995
G1 X120.665 Y79.217 E.01952
G1 X121.515 Y79.069 E.02705
G1 X122.294 Y78.898 E.02502
G1 X123.134 Y78.68 E.02718
G1 X124.811 Y78.174 E.05494
G1 X128.909 Y76.769 E.13581
G1 X130.251 Y76.433 E.04338
G1 X131.44 Y76.202 E.038
G1 X132.622 Y76.036 E.03742
G1 X133.197 Y75.979 E.01811
G1 X133.766 Y75.938 E.0179
G1 X134.9 Y75.905 E.03557
G1 X136.493 Y75.977 E.04998
G1 X137.998 Y76.188 E.04765
G1 X139.419 Y76.533 E.04587
G1 X140.752 Y77.008 E.04437
G1 X141.992 Y77.607 E.04319
G1 X143.135 Y78.327 E.04236
G1 X144.178 Y79.165 E.04194
G1 X145.116 Y80.118 E.04193
G1 X145.946 Y81.185 E.04237
G1 X146.643 Y82.334 E.04214
G1 X146.853 Y82.626 E.01129
G1 X147.153 Y82.827 E.01131
G1 X148.15 Y83.242 E.03385
G1 X150.737 Y84.155 E.08604
G1 X151.795 Y84.594 E.03592
G1 X152.311 Y84.841 E.01793
G1 X152.826 Y85.115 E.01829
G1 X153.331 Y85.417 E.01843
G1 X153.82 Y85.749 E.01856
G1 X154.286 Y86.111 E.01848
G1 X154.915 Y86.688 E.02676
G1 X155.462 Y87.303 E.02583
G1 X155.934 Y87.962 E.0254
G1 X156.332 Y88.661 E.02522
G1 X156.654 Y89.4 E.02528
G1 X156.902 Y90.178 E.0256
G1 X157.073 Y90.993 E.02611
G1 X157.166 Y91.844 E.02685
G1 X157.178 Y92.726 E.02765
G1 X157.083 Y93.839 E.03502
G1 X156.818 Y95.009 E.03761
G1 X156.441 Y96.418 E.04573
G1 X155.357 Y99.94 E.11555
G1 X155.105 Y100.866 E.03007
G1 X154.917 Y101.875 E.0322
G1 X154.873 Y102.446 E.01795
G1 X154.926 Y103.009 E.01773
G1 X155.079 Y103.496 E.01601
G1 X155.386 Y104.104 E.02136
G1 X155.824 Y104.727 E.02389
G1 X156.347 Y105.335 E.02513
G1 X156.981 Y105.972 E.02816
G1 X160.518 Y109.317 E.15265
G1 X156.081 Y112.694 E.17483
G1 X155.59 Y113.155 E.02113
G1 X155.174 Y113.697 E.02142
G1 X154.889 Y114.329 E.02173
G1 X154.769 Y114.997 E.02126
G1 X154.787 Y115.678 E.02138
G1 X154.911 Y116.403 E.02306
G1 X155.129 Y117.22 E.0265
G1 X155.437 Y118.17 E.03132
G1 X156.49 Y121.177 E.0999
G1 X156.776 Y122.15 E.03177
G1 X157.07 Y123.519 E.04392
G1 X157.173 Y124.197 E.02149
G1 X157.238 Y125.244 E.03289
G1 X157.204 Y126.2 E.02999
G1 X157.037 Y127.245 E.0332
G1 X156.719 Y128.298 E.03448
G1 X156.227 Y129.36 E.03671
G1 X155.589 Y130.342 E.03671
G1 X154.832 Y131.216 E.03624
G1 X153.968 Y131.994 E.03645
G1 X153.013 Y132.682 E.03691
G1 X151.984 Y133.285 E.03741
G1 X150.901 Y133.811 E.03775
G1 X149.784 Y134.263 E.03778
G1 X148.655 Y134.649 E.03741
G1 X147.535 Y134.975 E.03657
G1 X146.392 Y135.264 E.03695
G1 X146.207 Y135.333 E.00619
G1 X145.914 Y135.558 E.0116
G1 X144.836 Y136.791 E.05136
G1 X143.978 Y137.657 E.03821
G1 X143.105 Y138.44 E.03677
G1 X142.218 Y139.139 E.0354
G1 X141.316 Y139.755 E.03426
G1 X140.397 Y140.292 E.03336
G1 X139.46 Y140.75 E.0327
G1 X138.503 Y141.132 E.03232
G1 X137.522 Y141.439 E.03222
G1 X136.554 Y141.662 E.03117
G1 X136.041 Y141.751 E.01631
G1 X135.355 Y141.833 E.02167
G1 X134.678 Y141.876 E.02126
G1 X133.29 Y141.853 E.04353
G1 X132.418 Y141.765 E.02747
G1 X131.562 Y141.626 E.02719
G1 X130.728 Y141.443 E.02677
G1 X129.914 Y141.222 E.02645
G1 X129.125 Y140.971 E.02597
G1 X127.571 Y140.397 E.05193
G1 X124.408 Y139.105 E.10715
G1 X123.581 Y138.806 E.02758
G1 X122.754 Y138.557 E.02709
G1 X121.185 Y138.223 E.05027
G1 X120.384 Y138.103 E.02541
G1 X119.343 Y138.032 E.03272
G1 X118.619 Y138.042 E.02268
G1 X117.585 Y138.144 E.0326
G1 X116.955 Y138.263 E.02009
G1 X116.365 Y138.415 E.01909
G1 X115.722 Y138.635 E.02132
G1 X115.071 Y138.927 E.02238
G1 X114.426 Y139.298 E.02332
G1 X113.802 Y139.758 E.02432
G1 X113.26 Y140.264 E.02326
G1 X110.108 Y143.586 E.14358
G1 X107.112 Y140.085 E.14448
G1 X106.659 Y139.591 E.02101
G1 X106.169 Y139.138 E.02093
G1 X105.233 Y138.478 E.03591
G1 X104.293 Y138.068 E.03217
G1 X103.38 Y137.87 E.02927
G1 X102.511 Y137.822 E.0273
G1 X101.826 Y137.853 E.02151
G1 X101.127 Y137.934 E.02204
G1 X100.417 Y138.059 E.02261
G1 X99.695 Y138.222 E.0232
G1 X98.951 Y138.419 E.02415
G1 X97.452 Y138.881 E.04917
G1 X93.258 Y140.34 E.13924
G1 X91.352 Y140.949 E.06272
G1 X90.407 Y141.212 E.03077
G1 X89.455 Y141.442 E.0307
G1 X88.501 Y141.632 E.0305
G1 X87.545 Y141.775 E.03032
G1 X86.585 Y141.865 E.03022
G1 X85.629 Y141.896 E.03001
G1 X84.325 Y141.833 E.04092
G1 X83.081 Y141.645 E.03947
G1 X81.887 Y141.334 E.03868
G1 X80.743 Y140.902 E.03832
G1 X79.649 Y140.35 E.03842
G1 X78.606 Y139.676 E.03894
G1 X77.613 Y138.881 E.03989
G1 X76.672 Y137.963 E.04121
G1 X75.787 Y136.921 E.04287
G1 X75.165 Y136.044 E.03369
G1 X74.741 Y135.506 E.02149
G1 X74.483 Y135.357 E.00934
G1 X73.775 Y135.086 E.02375
G1 X71.814 Y134.419 E.06495
G1 X71.163 Y134.17 E.02186
G1 X70.489 Y133.881 E.023
G1 X69.803 Y133.548 E.02392
G1 X69.113 Y133.162 E.02477
G1 X68.429 Y132.717 E.02559
G1 X67.757 Y132.206 E.02647
G1 X67.104 Y131.62 E.02751
G1 X66.473 Y130.947 E.02892
G1 X65.344 Y129.532 E.05676
G1 X64.576 Y128.153 E.0495
G1 X64.089 Y126.785 E.04553
G1 X63.838 Y125.432 E.04316
G1 X63.782 Y124.101 E.04175
G1 X63.884 Y122.807 E.0407
G1 X64.106 Y121.567 E.03951
G1 X64.408 Y120.4 E.03779
G1 X64.751 Y119.324 E.03542
G1 X65.687 Y116.627 E.08951
G1 X65.879 Y115.919 E.023
G1 X65.973 Y115.368 E.01751
G1 X65.976 Y114.814 E.01738
G1 X65.86 Y114.273 E.01735
G1 X65.733 Y113.954 E.01076
G1 X65.406 Y113.463 E.0185
G1 X65.024 Y113.071 E.01716
G1 X64.583 Y112.709 E.01789
G1 X59.621 Y109.054 E.19322
G1 X64.062 Y105.708 E.17435
G1 X64.63 Y105.257 E.02273
G1 X65.133 Y104.78 E.02174
G1 X65.554 Y104.23 E.02172
G1 X65.845 Y103.603 E.02169
G1 X65.982 Y102.939 E.02123
G1 X65.987 Y102.262 E.02124
G1 X65.893 Y101.544 E.02269
G1 X65.715 Y100.742 E.02576
G1 X65.461 Y99.818 E.03006
G1 X64.577 Y96.851 E.09706
G1 X64.336 Y95.866 E.03178
G1 X64.144 Y94.849 E.03247
G1 X64.024 Y93.81 E.03278
G1 X63.993 Y92.757 E.03302
G1 X64.072 Y91.695 E.03341
G1 X64.279 Y90.625 E.03416
G1 X64.635 Y89.548 E.03557
G1 X65.167 Y88.455 E.03813
G1 X65.672 Y87.669 E.02929
G1 X66.271 Y86.92 E.03007
G1 X66.965 Y86.211 E.0311
G1 X67.76 Y85.539 E.03263
G1 X68.661 Y84.904 E.03456
G1 X69.673 Y84.304 E.0369
G1 X70.8 Y83.739 E.03951
G1 X72.045 Y83.211 E.04241
G1 X73.411 Y82.719 E.04552
G1 X74.956 Y82.245 E.05067
G1 X75.117 Y82.178 E.00546
G1 X75.247 Y82.074 E.00524
G1 X75.059 Y81.75 F9000
G1 F1200
G1 X75.112 Y81.707 E.00216
G1 X76.139 Y80.483 E.05009
G1 X77.151 Y79.43 E.04577
G1 X78.181 Y78.505 E.04343
G1 X79.23 Y77.706 E.04133
G1 X80.296 Y77.033 E.03954
G1 X81.38 Y76.485 E.03808
G1 X82.481 Y76.059 E.03702
G1 X83.601 Y75.756 E.03637
G1 X84.74 Y75.574 E.03617
G1 X85.953 Y75.513 E.03809
G1 X86.823 Y75.552 E.02728
G1 X87.427 Y75.62 E.01909
G1 X88.352 Y75.791 E.02949
G1 X88.954 Y75.945 E.01948
G1 X90.333 Y76.397 E.04549
G1 X95.115 Y78.033 E.15847
G1 X97.091 Y78.625 E.06468
G1 X98.06 Y78.873 E.03136
G1 X99.016 Y79.08 E.03067
G1 X99.956 Y79.238 E.0299
G1 X100.878 Y79.339 E.02908
G1 X101.77 Y79.373 E.02797
G1 X102.385 Y79.353 E.01931
G1 X103.046 Y79.282 E.02083
G1 X103.54 Y79.194 E.01574
G1 X104.085 Y79.05 E.01766
G1 X104.607 Y78.862 E.0174
G1 X105.108 Y78.629 E.01734
G1 X105.598 Y78.345 E.01774
G1 X106.051 Y78.03 E.01732
G1 X106.496 Y77.666 E.01803
G1 X107.224 Y76.985 E.03124
G1 X107.902 Y76.484 E.02644
G1 X108.621 Y76.107 E.02545
G1 X109.378 Y75.852 E.02504
G1 X110.159 Y75.723 E.02484
G1 X110.935 Y75.73 E.02432
G1 X111.497 Y75.794 E.01773
G1 X112.121 Y75.97 E.02033
G1 X112.65 Y76.163 E.01766
G1 X113.243 Y76.48 E.02108
G1 X113.721 Y76.807 E.01818
G1 X114.485 Y77.402 E.03035
G1 X114.966 Y77.738 E.01841
G1 X115.451 Y78.033 E.01779
G1 X115.96 Y78.296 E.01798
G1 X116.964 Y78.678 E.03367
G1 X117.983 Y78.895 E.03267
G1 X118.52 Y78.947 E.01691
G1 X119.078 Y78.964 E.01748
G1 X120.005 Y78.912 E.02912
G1 X120.602 Y78.845 E.01883
G1 X121.434 Y78.701 E.0265
G1 X122.2 Y78.533 E.02458
G1 X123.027 Y78.319 E.02678
G1 X124.702 Y77.813 E.05487
G1 X128.801 Y76.407 E.13588
G1 X130.169 Y76.065 E.0442
G1 X131.378 Y75.83 E.03862
G1 X132.577 Y75.661 E.03797
G1 X133.747 Y75.561 E.03682
G1 X134.903 Y75.527 E.03626
G1 X136.527 Y75.601 E.05098
G1 X138.069 Y75.817 E.0488
G1 X139.527 Y76.171 E.04707
G1 X140.898 Y76.659 E.04562
G1 X142.176 Y77.277 E.04449
G1 X143.355 Y78.02 E.0437
G1 X144.431 Y78.885 E.0433
G1 X145.4 Y79.869 E.04331
G1 X146.257 Y80.971 E.04374
G1 X147.071 Y82.304 E.04899
G1 X147.299 Y82.479 E.009
G1 X148.276 Y82.887 E.03319
G1 X150.872 Y83.803 E.08634
G1 X151.949 Y84.25 E.03654
G1 X152.481 Y84.504 E.0185
G1 X153.012 Y84.787 E.01885
G1 X153.533 Y85.099 E.01907
G1 X154.042 Y85.444 E.01927
G1 X154.53 Y85.822 E.01935
G1 X155.184 Y86.423 E.02785
G1 X155.757 Y87.068 E.02705
G1 X156.252 Y87.758 E.02664
G1 X156.669 Y88.492 E.02646
G1 X157.008 Y89.267 E.02651
G1 X157.267 Y90.082 E.02681
G1 X157.446 Y90.933 E.02729
G1 X157.542 Y91.821 E.028
G1 X157.555 Y92.739 E.02879
G1 X157.456 Y93.897 E.03642
G1 X157.184 Y95.099 E.03865
G1 X156.804 Y96.522 E.04619
G1 X155.72 Y100.041 E.11544
G1 X155.474 Y100.946 E.02941
G1 X155.318 Y101.675 E.02336
G1 X155.247 Y102.343 E.02108
G1 X155.292 Y102.904 E.01764
G1 X155.418 Y103.331 E.01395
G1 X155.697 Y103.89 E.0196
G1 X156.111 Y104.482 E.02266
G1 X156.615 Y105.069 E.02424
G1 X157.24 Y105.698 E.0278
G1 X161.1 Y109.348 E.16658
G1 X156.335 Y112.973 E.18771
G1 X155.881 Y113.395 E.01943
G1 X155.51 Y113.868 E.01884
G1 X155.258 Y114.408 E.01871
G1 X155.147 Y114.993 E.01867
G1 X155.159 Y115.617 E.01956
G1 X155.276 Y116.307 E.02194
G1 X155.488 Y117.104 E.02587
G1 X155.792 Y118.046 E.03103
G1 X156.852 Y121.07 E.10049
G1 X157.143 Y122.063 E.03242
G1 X157.442 Y123.459 E.04477
G1 X157.549 Y124.17 E.02255
G1 X157.615 Y125.257 E.03415
G1 X157.58 Y126.236 E.03071
G1 X157.405 Y127.33 E.03472
G1 X157.072 Y128.432 E.03611
G1 X156.557 Y129.543 E.03839
G1 X155.891 Y130.569 E.03837
G1 X155.102 Y131.48 E.03779
G1 X154.205 Y132.288 E.03782
G1 X153.219 Y132.998 E.03811
G1 X152.162 Y133.618 E.03843
G1 X151.054 Y134.155 E.03861
G1 X149.916 Y134.616 E.0385
G1 X148.769 Y135.008 E.03801
G1 X147.634 Y135.339 E.03706
G1 X146.374 Y135.671 E.04086
G1 X146.198 Y135.806 E.00696
G1 X145.112 Y137.048 E.05173
G1 X144.238 Y137.93 E.03893
G1 X143.348 Y138.729 E.0375
G1 X142.441 Y139.443 E.03617
G1 X141.518 Y140.074 E.03508
G1 X140.575 Y140.624 E.03422
G1 X139.613 Y141.095 E.03358
G1 X138.629 Y141.488 E.03322
G1 X137.621 Y141.803 E.03312
G1 X136.639 Y142.03 E.03162
G1 X136.095 Y142.124 E.01731
G1 X135.389 Y142.208 E.02227
G1 X134.687 Y142.253 E.02206
G1 X133.268 Y142.23 E.0445
G1 X132.369 Y142.139 E.02832
G1 X131.492 Y141.997 E.02788
G1 X130.639 Y141.809 E.02739
G1 X129.808 Y141.584 E.02698
G1 X129.003 Y141.328 E.02649
G1 X127.435 Y140.749 E.05241
G1 X124.279 Y139.459 E.10687
G1 X123.471 Y139.167 E.02697
G1 X122.675 Y138.926 E.02608
G1 X121.128 Y138.596 E.04957
G1 X120.357 Y138.479 E.02446
G1 X119.346 Y138.409 E.03177
G1 X118.655 Y138.418 E.02167
G1 X117.652 Y138.515 E.0316
G1 X117.047 Y138.629 E.01929
G1 X116.486 Y138.772 E.01817
G1 X115.874 Y138.981 E.02028
G1 X115.256 Y139.255 E.02119
G1 X114.647 Y139.603 E.022
G1 X114.058 Y140.034 E.02287
G1 X113.533 Y140.523 E.02251
G1 X110.093 Y144.149 E.15671
G1 X106.834 Y140.339 E.15722
G1 X106.399 Y139.865 E.02016
G1 X105.947 Y139.442 E.01942
G1 X105.076 Y138.82 E.03355
G1 X104.208 Y138.435 E.02978
G1 X103.357 Y138.247 E.02733
G1 X102.527 Y138.198 E.02608
G1 X101.869 Y138.227 E.02065
G1 X101.192 Y138.306 E.02135
G1 X100.5 Y138.427 E.02205
G1 X99.792 Y138.587 E.02276
G1 X99.062 Y138.779 E.02366
G1 X97.582 Y139.235 E.04856
G1 X93.377 Y140.698 E.13957
G1 X91.46 Y141.31 E.0631
G1 X90.502 Y141.577 E.03119
G1 X89.537 Y141.811 E.03115
G1 X88.566 Y142.004 E.03103
G1 X87.59 Y142.15 E.03093
G1 X86.609 Y142.242 E.03091
G1 X85.626 Y142.274 E.03085
G1 X84.288 Y142.208 E.042
G1 X83.005 Y142.014 E.04069
G1 X81.772 Y141.694 E.03993
G1 X80.591 Y141.248 E.03959
G1 X79.461 Y140.677 E.03968
G1 X78.385 Y139.983 E.04017
G1 X77.363 Y139.164 E.04107
G1 X76.396 Y138.22 E.04234
G1 X75.489 Y137.152 E.04394
G1 X74.545 Y135.837 E.05076
