; generated by PrusaSlicer 2.5.0+win64 on 2022-10-02 at 19:22:51 UTC

; 

; external perimeters extrusion width = 0.42mm
; perimeters extrusion width = 0.44mm
; infill extrusion width = 0.44mm
; solid infill extrusion width = 0.44mm
; top infill extrusion width = 0.40mm
; first layer extrusion width = 0.42mm

M107
;TYPE:Custom
G90 ; use absolute coordinates
M83 ; extruder relative mode
M140 S80 ; set final bed temp
M104 S150 ; set temporary nozzle temp to prevent oozing during homing
G4 S10 ; allow partial nozzle warmup
G28 ; home all axis
G1 Z50 F240
G1 X2 Y10 F3000
M104 S225 ; set final nozzle temp
M190 S80 ; wait for bed temp to stabilize
M109 S225 ; wait for nozzle temp to stabilize
G1 Z0.28 F240
G92 E0
G1 Y140 E10 F1500 ; prime the nozzle
G1 X2.3 F5000
G92 E0
G1 Y10 E10 F1200 ; prime the nozzle
G92 E0
G21 ; set units to millimeters
G90 ; use absolute coordinates
M83 ; use relative distances for extrusion
; Filament gcode
M107
;LAYER_CHANGE
;Z:0.2
;HEIGHT:0.2
;BEFORE_LAYER_CHANGE
G92 E0
;0.2


G1 E-5 F3600
G1 Z.2 F9000
;AFTER_LAYER_CHANGE
;0.2
G1 X88.962 Y60.939
G1 E5 F2400
M204 S500
;TYPE:Skirt/Brim
;WIDTH:0.42
G1 F1200
G1 X89.956 Y59.815 E.04704
G1 X91.098 Y58.858 E.04671
G1 X92.358 Y58.079 E.04646
G1 X93.715 Y57.478 E.04654
G1 X95.148 Y57.056 E.04682
G1 X96.544 Y56.819 E.04442
G1 X100.879 Y56.452 E.13639
G1 X116.322 Y55.835 E.4846
G1 X119.095 Y56.037 E.08717
G1 X121.353 Y56.546 E.07258
G1 X122.462 Y56.961 E.03713
G1 X123.596 Y57.52 E.03961
G1 X124.702 Y58.217 E.04102
G1 X125.622 Y58.936 E.0366
G1 X134.496 Y68.101 E.39998
G1 X135.319 Y69.193 E.04289
G1 X136.022 Y70.349 E.04243
G1 X136.464 Y71.245 E.03133
G1 X136.943 Y72.483 E.04162
G1 X137.292 Y73.765 E.04164
G1 X138.488 Y83.146 E.29651
G1 X138.712 Y85.4 E.07103
G1 X138.774 Y87.459 E.06459
G1 X139.34 Y145.315 E1.81414
G1 X139.329 Y146.786 E.0461
G1 X139.219 Y147.99 E.03791
G1 X138.784 Y150.055 E.06619
G1 X138.151 Y151.8 E.05819
G1 X137.235 Y153.573 E.06258
G1 X136.046 Y155.309 E.06598
G1 X134.439 Y157.056 E.07443
G1 X133.269 Y158.025 E.04765
G1 X131.893 Y158.93 E.05162
G1 X130.311 Y159.723 E.05548
G1 X128.517 Y160.362 E.0597
G1 X126.517 Y160.806 E.06426
G1 X109.373 Y163.95 E.5465
G1 X107.516 Y164.163 E.0586
G1 X105.875 Y164.055 E.05156
G1 X103.728 Y163.494 E.06958
G1 X102.723 Y163.051 E.03444
G1 X101.381 Y162.258 E.04887
G1 X85.066 Y150.513 E.63031
G1 X83.703 Y149.248 E.05829
G1 X82.6 Y147.838 E.05614
G1 X81.791 Y146.485 E.04943
G1 X81.188 Y144.984 E.05071
G1 X80.835 Y143.467 E.04883
G1 X80.669 Y141.886 E.04984
G1 X80.662 Y85.978 E1.75297
G1 X80.834 Y82.48 E.10979
G1 X81.251 Y79.813 E.08466
G1 X82.401 Y75.807 E.13068
G1 X87.751 Y63.006 E.435
G1 X88.138 Y62.22 E.02746
G1 X88.929 Y60.989 E.04589
G1 E-3.5 F3600
;WIPE_START
G1 F7200
G1 X89.956 Y59.815 E-.74074
G1 X91.06 Y58.89 E-.68426
;WIPE_END
G1 E-.075 F3600
G1 X91.623 Y68.83 F9000
G1 E5 F2400
;TYPE:Perimeter
;WIDTH:0.419999
G1 F1200
G1 X91.622 Y68.674 E.00487
G1 X91.444 Y67.769 E.02893
G1 X91.392 Y67.113 E.02064
G1 X91.438 Y66.261 E.02673
G1 X91.526 Y65.746 E.01641
G1 X91.698 Y65.115 E.02049
G1 X91.974 Y64.459 E.02233
G1 X92.413 Y63.735 E.02655
G1 X92.95 Y63.097 E.02614
G1 X93.582 Y62.541 E.02639
G1 X94.304 Y62.071 E.02702
G1 X95.113 Y61.694 E.02799
G1 X96.001 Y61.415 E.02916
G1 X96.961 Y61.242 E.03058
G1 X98.063 Y61.183 E.03462
G1 X98.664 Y61.186 E.01883
G1 X99.877 Y61.013 E.03843
G1 X100.787 Y60.911 E.02869
G1 X101.776 Y60.867 E.03104
G1 X102.388 Y60.886 E.01921
G1 X102.973 Y60.943 E.01844
G1 X103.847 Y61.106 E.02785
G1 X104.664 Y61.333 E.02659
G1 X105.159 Y61.529 E.01673
G1 X105.824 Y61.847 E.02308
G1 X106.289 Y62.158 E.01756
G1 X106.693 Y62.501 E.01663
G1 X107.105 Y62.942 E.01891
G1 X107.549 Y63.472 E.02167
G1 X107.879 Y63.67 E.01207
G1 X108.271 Y63.72 E.01238
G1 X108.659 Y63.599 E.01274
G1 X108.911 Y63.388 E.01032
G1 X109.537 Y62.646 E.03041
G1 X110.12 Y62.109 E.02487
G1 X110.804 Y61.619 E.02639
G1 X111.597 Y61.189 E.02828
G1 X112.507 Y60.828 E.03071
G1 X113.542 Y60.546 E.03362
G1 X114.641 Y60.369 E.0349
G1 X116.294 Y60.281 E.0519
G1 X117.912 Y60.369 E.05082
G1 X118.543 Y60.444 E.01994
G1 X119.21 Y60.564 E.02124
G1 X119.9 Y60.743 E.02234
G1 X120.394 Y60.92 E.01647
G1 X120.992 Y61.18 E.02045
G1 X121.486 Y61.436 E.01743
G1 X122.356 Y62.012 E.03273
G1 X122.843 Y62.416 E.01983
G1 X123.407 Y62.991 E.02524
G1 X123.734 Y63.394 E.01628
G1 X124.042 Y63.841 E.01702
G1 X124.363 Y64.427 E.02095
G1 X124.622 Y65.049 E.02112
G1 X124.867 Y65.944 E.02909
G1 X125.053 Y67.028 E.03449
G1 X125.255 Y67.399 E.01326
G1 X125.413 Y67.541 E.00666
G1 X125.72 Y67.685 E.01063
G1 X126.564 Y67.908 E.02736
G1 X127.275 Y68.161 E.02366
G1 X127.97 Y68.475 E.0239
G1 X128.643 Y68.847 E.02412
G1 X129.291 Y69.276 E.02436
G1 X129.906 Y69.756 E.02446
G1 X130.482 Y70.285 E.02452
G1 X131.011 Y70.855 E.0244
G1 X131.581 Y71.591 E.02918
G1 X132.062 Y72.362 E.02849
G1 X132.457 Y73.162 E.02796
G1 X132.762 Y73.982 E.02744
G1 X132.977 Y74.817 E.02704
G1 X133.101 Y75.658 E.02667
G1 X133.131 Y76.499 E.02636
G1 X133.07 Y77.284 E.02471
G1 X132.858 Y78.476 E.03795
G1 X132.9 Y78.748 E.00863
G1 X133.19 Y79.678 E.03052
G1 X133.738 Y81.769 E.06778
G1 X134.075 Y83.64 E.05962
G1 X134.273 Y85.572 E.06089
G1 X134.333 Y87.556 E.06222
G1 X134.253 Y89.584 E.06366
G1 X134.033 Y91.652 E.06521
G1 X133.674 Y93.751 E.06678
G1 X133.174 Y95.875 E.06839
G1 X131.924 Y99.975 E.13439
G1 X131.462 Y101.557 E.05168
G1 X131.056 Y103.117 E.05054
G1 X130.876 Y103.909 E.02548
G1 X130.63 Y105.286 E.04383
G1 X130.581 Y106.653 E.0429
G1 X130.637 Y107.768 E.03501
G1 X130.855 Y110.521 E.08659
G1 X130.902 Y111.681 E.03641
G1 X130.905 Y112.267 E.01838
G1 X130.891 Y112.864 E.01871
G1 X130.845 Y113.605 E.02327
G1 X130.56 Y115.221 E.05147
G1 X130.208 Y116.707 E.04788
G1 X129.767 Y118.206 E.04897
G1 X129.237 Y119.714 E.05013
G1 X128.618 Y121.23 E.05135
G1 X127.911 Y122.755 E.0527
G1 X127.115 Y124.287 E.05411
G1 X126.228 Y125.828 E.05577
G1 X126.075 Y126.133 E.01069
G1 X126.027 Y126.42 E.00914
G1 X126.104 Y126.8 E.01215
G1 X126.217 Y126.996 E.00708
G1 X126.592 Y127.292 E.01499
G1 X127.872 Y127.852 E.04379
G1 X128.927 Y128.428 E.03769
G1 X129.919 Y129.09 E.0374
G1 X130.841 Y129.831 E.0371
G1 X131.689 Y130.651 E.03697
G1 X132.455 Y131.543 E.03688
G1 X133.132 Y132.502 E.03681
G1 X133.81 Y133.712 E.04346
G1 X134.217 Y134.897 E.0393
G1 X134.45 Y135.879 E.03163
G1 X134.599 Y136.849 E.03077
G1 X134.677 Y137.803 E.03001
G1 X134.697 Y138.739 E.02936
G1 X134.673 Y139.647 E.02849
G1 X134.546 Y141.56 E.0601
G1 X134.62 Y142.523 E.03029
G1 X134.85 Y144.704 E.06876
G1 X134.899 Y145.437 E.02304
G1 X134.902 Y146.431 E.03117
G1 X134.802 Y147.525 E.03443
G1 X134.563 Y148.671 E.03671
G1 X134.147 Y149.879 E.04004
G1 X133.511 Y151.153 E.04466
G1 X132.603 Y152.504 E.05103
G1 X132.039 Y153.179 E.02757
G1 X131.345 Y153.869 E.03068
G1 X130.521 Y154.536 E.03326
G1 X129.554 Y155.154 E.03599
G1 X128.432 Y155.698 E.03907
G1 X127.143 Y156.138 E.04272
G1 X125.67 Y156.446 E.04717
G1 X123.971 Y156.595 E.05348
G1 X123.196 Y156.614 E.0243
G1 X122.039 Y156.584 E.03629
G1 X121.15 Y156.487 E.02804
G1 X120.218 Y156.314 E.02972
G1 X119.191 Y156.056 E.0332
G1 X118.475 Y155.835 E.02349
G1 X117.509 Y155.461 E.03249
G1 X116.57 Y155.019 E.03254
G1 X115.755 Y154.563 E.02927
G1 X114.979 Y154.03 E.02952
G1 X114.476 Y153.625 E.02025
G1 X114.072 Y153.407 E.01437
G1 X113.781 Y153.378 E.00918
G1 X113.494 Y153.441 E.00922
G1 X113.115 Y153.633 E.01333
G1 X112.886 Y153.899 E.01098
G1 X112.77 Y154.227 E.01091
G1 X112.642 Y155.055 E.02627
G1 X112.451 Y155.895 E.02702
G1 X112.049 Y157.061 E.03867
G1 X111.681 Y157.526 E.01858
G1 X111.218 Y158.052 E.02197
G1 X110.739 Y158.491 E.02036
G1 X110.231 Y158.864 E.01976
G1 X109.695 Y159.171 E.01936
G1 X109.135 Y159.411 E.01911
G1 X108.552 Y159.585 E.01906
G1 X107.947 Y159.69 E.01926
G1 X107.338 Y159.725 E.01913
G1 X106.354 Y159.638 E.03095
G1 X105.443 Y159.396 E.02956
G1 X104.582 Y159.017 E.0295
G1 X103.778 Y158.518 E.02967
G1 X103.04 Y157.921 E.02978
G1 X102.375 Y157.249 E.02963
G1 X101.797 Y156.536 E.0288
G1 X100.939 Y155.216 E.04936
G1 X100.64 Y154.686 E.01907
G1 X100.369 Y154.146 E.01895
G1 X100.126 Y153.603 E.01865
G1 X99.912 Y153.061 E.01827
G1 X99.728 Y152.528 E.01768
G1 X99.324 Y151.161 E.04468
G1 X99.133 Y150.905 E.01003
G1 X98.95 Y150.769 E.00713
G1 X98.639 Y150.659 E.01036
G1 X97.095 Y150.401 E.04909
G1 X95.705 Y150.112 E.04452
G1 X94.822 Y149.897 E.02849
G1 X93.516 Y149.516 E.04265
G1 X92.924 Y149.315 E.0196
G1 X91.772 Y148.878 E.03862
G1 X89.391 Y147.89 E.08083
G1 X88.858 Y147.649 E.01834
G1 X88.399 Y147.4 E.01639
G1 X87.981 Y147.122 E.01573
G1 X87.442 Y146.719 E.02108
G1 X86.977 Y146.245 E.02082
G1 X86.628 Y145.813 E.01744
G1 X86.078 Y145.045 E.0296
G1 X85.74 Y144.452 E.02141
G1 X85.451 Y143.727 E.02447
G1 X85.213 Y142.705 E.03291
G1 X85.123 Y141.938 E.02421
G1 X85.124 Y141.376 E.0176
G1 X85.188 Y140.645 E.02302
G1 X85.272 Y140.13 E.01635
G1 X85.488 Y139.326 E.02611
G1 X85.717 Y138.677 E.02157
G1 X86.01 Y138.014 E.02275
G1 X86.515 Y137.076 E.03338
G1 X87.173 Y135.79 E.04531
G1 X87.888 Y134.567 E.04442
G1 X88.672 Y133.38 E.0446
G1 X89.523 Y132.234 E.04475
G1 X90.437 Y131.133 E.04489
G1 X91.412 Y130.081 E.04495
G1 X92.443 Y129.084 E.04498
G1 X93.86 Y127.872 E.05847
G1 X94.844 Y127.158 E.0381
G1 X96.251 Y126.252 E.05249
G1 X96.581 Y125.887 E.01542
G1 X96.675 Y125.585 E.00992
G1 X96.654 Y125.224 E.01136
G1 X96.558 Y124.99 E.00791
G1 X96.065 Y124.133 E.03101
G1 X95.537 Y123.327 E.0302
G1 X93.477 Y120.423 E.11164
G1 X92.964 Y119.655 E.02896
G1 X92.476 Y118.868 E.02902
G1 X92.026 Y118.062 E.02895
G1 X91.624 Y117.237 E.02878
G1 X91.282 Y116.395 E.02848
G1 X90.651 Y114.341 E.0674
G1 X90.392 Y113.228 E.03582
G1 X90.196 Y112.113 E.03548
G1 X90.055 Y111.003 E.03509
G1 X89.959 Y109.901 E.0347
G1 X89.896 Y108.812 E.03419
G1 X89.824 Y106.474 E.07333
G1 X89.827 Y105.339 E.03558
G1 X89.795 Y104.537 E.02519
G1 X89.726 Y103.918 E.01952
G1 X89.607 Y103.371 E.01755
G1 X89.101 Y101.876 E.04948
G1 X87.327 Y97.004 E.16257
G1 X86.514 Y94.586 E.08
G1 X85.678 Y91.534 E.09921
G1 X85.357 Y90.134 E.04505
G1 X85.235 Y89.414 E.0229
G1 X85.145 Y88.666 E.02362
G1 X85.098 Y87.9 E.02405
G1 X85.126 Y84.912 E.0937
G1 X85.175 Y83.876 E.03253
G1 X85.263 Y82.84 E.03259
G1 X85.396 Y81.811 E.03252
G1 X85.599 Y80.729 E.03454
G1 X85.901 Y79.563 E.03775
G1 X86.565 Y77.35 E.07246
G1 X87.058 Y76.059 E.04332
G1 X87.635 Y74.832 E.04252
G1 X88.283 Y73.665 E.04185
G1 X88.993 Y72.556 E.0413
G1 X89.751 Y71.499 E.04076
G1 X90.547 Y70.495 E.04019
G1 X91.416 Y69.477 E.04195
G1 X91.625 Y69.042 E.01514
G1 X91.624 Y68.89 E.00479
G1 X91.253 Y68.828 F9000
G1 F1200
G1 X91.253 Y68.751 E.00243
G1 X91.078 Y67.903 E.02713
G1 X91.014 Y67.202 E.02207
G1 X91.023 Y66.555 E.02029
G1 X91.084 Y66.046 E.0161
G1 X91.189 Y65.514 E.01698
G1 X91.343 Y64.987 E.01724
G1 X91.637 Y64.287 E.02381
G1 X92.106 Y63.514 E.02833
G1 X92.68 Y62.832 E.02794
G1 X93.353 Y62.239 E.02814
G1 X94.121 Y61.741 E.02871
G1 X94.976 Y61.341 E.0296
G1 X95.91 Y61.048 E.0307
G1 X96.916 Y60.867 E.03204
G1 X98.073 Y60.806 E.03632
G1 X98.611 Y60.812 E.01686
G1 X99.83 Y60.639 E.0386
G1 X100.757 Y60.535 E.02927
G1 X101.773 Y60.49 E.03188
G1 X102.412 Y60.51 E.02005
G1 X103.026 Y60.569 E.01935
G1 X103.932 Y60.738 E.02887
G1 X104.874 Y61 E.03066
G1 X105.654 Y61.328 E.02653
G1 X106.149 Y61.6 E.01772
G1 X106.628 Y61.94 E.01839
G1 X107.037 Y62.307 E.01725
G1 X107.848 Y63.23 E.03852
G1 X108.111 Y63.341 E.00894
G1 X108.379 Y63.314 E.00844
G1 X108.623 Y63.145 E.00931
G1 X109.264 Y62.385 E.03115
G1 X109.881 Y61.816 E.02635
G1 X110.604 Y61.299 E.02785
G1 X111.437 Y60.847 E.02971
G1 X112.388 Y60.469 E.03208
G1 X113.462 Y60.177 E.03492
G1 X114.666 Y59.983 E.03824
G1 X116.307 Y59.904 E.0515
G1 X117.944 Y59.993 E.05141
G1 X118.599 Y60.07 E.02067
G1 X119.291 Y60.195 E.02206
G1 X120.011 Y60.383 E.02332
G1 X120.751 Y60.648 E.02465
G1 X121.506 Y61.006 E.02618
G1 X122.272 Y61.475 E.02817
G1 X122.883 Y61.938 E.02404
G1 X123.428 Y62.445 E.02335
G1 X123.909 Y62.99 E.0228
G1 X124.269 Y63.494 E.01941
G1 X124.561 Y63.994 E.01816
G1 X124.789 Y64.463 E.01636
G1 X124.983 Y64.937 E.01603
G1 X125.236 Y65.87 E.03031
G1 X125.416 Y66.926 E.03361
G1 X125.567 Y67.18 E.00924
G1 X125.817 Y67.321 E.00899
G1 X126.676 Y67.547 E.02786
G1 X127.416 Y67.811 E.02464
G1 X128.139 Y68.137 E.02486
G1 X128.839 Y68.525 E.02507
G1 X129.511 Y68.97 E.02529
G1 X130.15 Y69.468 E.0254
G1 X130.748 Y70.017 E.02546
G1 X131.299 Y70.611 E.02541
G1 X131.89 Y71.376 E.0303
G1 X132.392 Y72.178 E.02968
G1 X132.803 Y73.012 E.02915
G1 X133.123 Y73.869 E.02866
G1 X133.347 Y74.742 E.02829
G1 X133.477 Y75.624 E.02794
G1 X133.509 Y76.506 E.02768
G1 X133.46 Y77.14 E.01992
G1 X133.372 Y77.798 E.02083
G1 X133.25 Y78.34 E.01742
G1 X133.261 Y78.636 E.00929
G1 X133.552 Y79.574 E.03079
G1 X134.107 Y81.688 E.06851
G1 X134.448 Y83.588 E.06053
G1 X134.65 Y85.547 E.06176
G1 X134.711 Y87.557 E.06306
G1 X134.629 Y89.612 E.06446
G1 X134.407 Y91.704 E.06598
G1 X134.043 Y93.827 E.06752
G1 X133.538 Y95.973 E.06914
G1 X132.285 Y100.085 E.13477
G1 X131.826 Y101.654 E.05126
G1 X131.423 Y103.2 E.05009
G1 X131.247 Y103.979 E.02503
G1 X131.007 Y105.299 E.04208
G1 X130.958 Y106.666 E.0429
G1 X131.013 Y107.74 E.0337
G1 X131.231 Y110.499 E.08677
G1 X131.279 Y111.673 E.03685
G1 X131.282 Y112.271 E.01876
G1 X131.267 Y112.88 E.0191
G1 X131.22 Y113.649 E.02416
G1 X130.93 Y115.298 E.05248
G1 X130.573 Y116.804 E.04855
G1 X130.126 Y118.321 E.04959
G1 X129.589 Y119.848 E.05073
G1 X128.964 Y121.381 E.05192
G1 X128.249 Y122.921 E.05325
G1 X127.446 Y124.468 E.05463
G1 X126.433 Y126.251 E.06431
G1 X126.416 Y126.544 E.00921
G1 X126.518 Y126.769 E.00773
G1 X126.743 Y126.947 E.009
G1 X128.038 Y127.513 E.04431
G1 X129.122 Y128.105 E.03873
G1 X130.142 Y128.785 E.03845
G1 X131.091 Y129.548 E.03817
G1 X131.963 Y130.392 E.03806
G1 X132.753 Y131.311 E.03798
G1 X133.451 Y132.301 E.03799
G1 X134.155 Y133.557 E.04515
G1 X134.579 Y134.792 E.04095
G1 X134.82 Y135.807 E.03268
G1 X134.974 Y136.805 E.03167
G1 X135.054 Y137.784 E.03079
G1 X135.074 Y138.74 E.02999
G1 X135.05 Y139.665 E.02904
G1 X134.922 Y141.531 E.05863
G1 X134.995 Y142.482 E.02991
G1 X135.226 Y144.677 E.06918
G1 X135.276 Y145.436 E.02386
G1 X135.279 Y146.448 E.03173
G1 X135.175 Y147.581 E.03566
G1 X134.927 Y148.772 E.03814
G1 X134.495 Y150.025 E.04156
G1 X133.837 Y151.343 E.04619
G1 X132.905 Y152.73 E.05241
G1 X132.317 Y153.434 E.02873
G1 X131.597 Y154.15 E.03183
G1 X130.742 Y154.842 E.03452
G1 X129.738 Y155.484 E.03735
G1 X128.576 Y156.047 E.04048
G1 X127.243 Y156.503 E.04417
G1 X125.725 Y156.82 E.04861
G1 X123.992 Y156.971 E.05455
G1 X123.196 Y156.991 E.02497
G1 X122.014 Y156.96 E.03709
G1 X121.095 Y156.86 E.02897
G1 X120.137 Y156.683 E.03053
G1 X119.089 Y156.42 E.03389
G1 X118.351 Y156.192 E.02422
G1 X117.36 Y155.808 E.03332
G1 X116.397 Y155.355 E.03337
G1 X115.556 Y154.883 E.03023
G1 X114.754 Y154.333 E.03051
G1 X114.268 Y153.942 E.01956
G1 X113.977 Y153.772 E.01055
G1 X113.802 Y153.755 E.00551
G1 X113.498 Y153.843 E.00996
G1 X113.267 Y154.009 E.00891
G1 X113.143 Y154.284 E.00945
G1 X113.013 Y155.125 E.02669
G1 X112.815 Y155.995 E.02796
G1 X112.613 Y156.621 E.02063
G1 X112.382 Y157.248 E.02094
G1 X111.971 Y157.768 E.02078
G1 X111.488 Y158.316 E.02291
G1 X110.979 Y158.783 E.02164
G1 X110.437 Y159.181 E.02108
G1 X109.864 Y159.509 E.02071
G1 X109.264 Y159.766 E.02048
G1 X108.639 Y159.952 E.02044
G1 X107.99 Y160.065 E.02063
G1 X107.332 Y160.103 E.02067
G1 X106.289 Y160.011 E.03283
G1 X105.318 Y159.753 E.0315
G1 X104.406 Y159.351 E.03125
G1 X103.56 Y158.826 E.03123
G1 X102.786 Y158.201 E.03118
G1 X102.093 Y157.501 E.03088
G1 X101.491 Y156.758 E.03
G1 X100.616 Y155.412 E.05034
G1 X100.307 Y154.864 E.01973
G1 X100.028 Y154.307 E.01951
G1 X99.778 Y153.749 E.01918
G1 X99.558 Y153.192 E.01878
G1 X99.368 Y152.641 E.01828
G1 X99.127 Y151.785 E.02788
G1 X98.969 Y151.298 E.01605
G1 X98.764 Y151.097 E.009
G1 X98.577 Y151.031 E.00622
G1 X97.025 Y150.772 E.04932
G1 X95.622 Y150.48 E.04496
G1 X94.724 Y150.262 E.02896
G1 X93.403 Y149.875 E.04317
G1 X92.797 Y149.67 E.02006
G1 X91.632 Y149.228 E.03904
G1 X89.687 Y148.407 E.06622
G1 X89.109 Y148.185 E.01941
